X: 21331
T: BEESWING HORNPIPE
C: By James Hill
R: hornpipe, reel
B: K\"ohler's Violin Repository, v.2, 1885 p.133 #1
F: http://www.archive.org/details/klersviolinrepos02rugg
Z: 2012 John Chambers <jc:trillian.mit.edu>
M: C|
L: 1/8
K: Bb
u(FA) |\
BfdB AecA | FdBF DBFD | EGce DFBd | (3cdB (3ABG F2(GA) |
Bfdb Afca | EBGe DBFd | (EG)ce (dc)BA | c2B2 B2 :|
|: u(fe) |\
dBfd bfdB | cAfc afcA | GEBG ecdB | cABG F2(GA) |
Bfdb Afca | EBGe DBFd | (EG)ce (dc)BA | c2B2 B2 :|

%%sep 2 1 500

